X:1
T:Amor ti vieta
T:Umberto Giordano
T:Acte 2 - Fedora
%%score 1 { ( 2 5 ) | ( 3 4 ) }
L:1/8
Q:1/8=126
M:6/8
K:C
V:1 treble-8 nm="Ténor" snm="T."
V:2 treble nm="Piano" snm="Pia."
V:5 treble 
V:3 bass 
V:4 bass 
V:1
"^Sostenuto" z6 | z6 | z6 | z6 | z6 | z6 | z6 |[Q:1/4=53]"_rall." z6 | %8
w: ||||||||
[M:4/4][Q:1/4=54]"^con espress." c4 (e>d) (c>B) | c4 c4 | e4 g3 c | d8 | f4 e2 (d>c) | d6 A2 | %14
w: A- mor~ _ ti~ _|vie- ta~|di non a-|mar|La~ man~ tua~ _|lie- ve,~|
 c4 B2 (Ac) | B4 B4 | c4"^senza precipitare" (e>d) (c>B) | c4 c4 | e4 g3 c | d8 | f4 edcB | g6 e2 | %22
w: che~ mi~ re- *|spin- ge,|cer- ca~ _ la~ _|stret- ta,~|del- la~ mia~|man,~|la~ tua~ pu- pil- la~e-|spri- ma~|
 (!>!a8- | a2 f2) e2 d2 | e4 c4 | e4 e2"^stentate" (3dcB | c4 z2 z2 |] %27
w: T'a-|* * mo! se~il~|lab- bro~|di- ce:~ Non  ~ t'a- me-|ro!~|
V:2
!f!!>(! =e2!>)! e2 [Fcf]/ z/!<(! (c/4f/4a/4c'/4)!<)! | %1
 !>![_e_a_e']!>![_d_d'][cc'] !>![ceac']!>![_B_b][_Aa] | %2
!f!!>(! !>![cfc']3!>)! [Fcf]-[Fcf]/ z/!<(! (c/4f/4a/4c'/4)!<)! | %3
 !>![_e_a_e']!>![_d_d'][cc'] !>![ceac']!>![_B_b][_Aa] | %4
!f!!>(! !>![cfc']3!>)! [Fcf]-[Fcf]/ z/!<(! (c/4f/4a/4c'/4)!<)! | %5
!>(! !>![_da_d']3!>)! [_Ada](3d/f/a/(3d'/f'/_e'/ |!p! [Bfb]2 z !tenuto![_DF_A]3 | %7
 !tenuto![_A,CF]3 !tenuto![F,B,G]3 |[M:4/4] z/ G,/C/E/ G/E/C/G,/ z/ A,/C/[EA]/ z/ _A,/B,/[D_A]/ | %9
 z/ G,/C/E/ G/E/C/G,/ G/E/C/G,/ G/E/C/G,/ | z/ G,/C/E/ G/E/C/G,/ G/E/C/G,/ A/E/C/A,/ | %11
 z/ B,/D/G/ B/G/D/B,/ B/G/D/B,/ B/G/D/B,/ | z/ D/F/A/ d/A/F/D/ z/ C/E/A/ c/A/E/C/ | %13
 z/ D/F/A/ d/A/F/D/ d/A/F/D/ d/A/F/D/ | z/ C/E/A/ c/A/E/C/ z/ B,/D/A/ B/A/D/B,/ | %15
 z/ D/E/^G/ B/G/E/D/ B/G/E/D/ B/G/E/D/ | z/ C/E/A/ c/A/E/C/ z/ B,/D/A/ z/ D/E/^G/ | %17
 z/ C/E/A/ c/A/E/C/ c/A/E/C/ c/A/E/C/ | z/ G,/C/E/ G/E/C/G,/ G/E/C/G,/ A/E/C/A,/ | %19
 z/ B,/D/G/ B/G/D/B,/ B/G/D/B,/ B/G/D/B,/ | z/ F,/A,/D/ F/D/A,/F,/ z/ G,/B,/F/ G/D/B,/G,/ | %21
 z/ G,/_B,/E/ G/E/B,/G,/ z/ A,/E/G/ A/G/E/A,/ | z/ A,/D/F/ A/F/D/A,/ d/A/F/D/ f/d/A/F/ | %23
 a/f/d/A/ f/d/A/F/ e/_A/F/E/ d/A/F/D/ | z/ G,/C/E/ G/E/C/G,/ z/ ^F,/C/E/ ^F/E/C/F,/ | %25
 z/ G,/C/E/ G/E/C/A,/ G, z[I:staff +1] [=F,B,][I:staff -1] z | z8 |] %27
V:3
 z !///-!F, C !///-![F,A,] C z | z !///-![_E,_A,] C !///-![E,A,] C z | %2
 z !///-![F,A,] C !///-![F,A,] C z | z !///-![_E,_A,] C !///-![E,A,] C z | %4
 z !///-![F,=A,] C !///-![F,A,] C z | z !///-![F,_A,] _D !///-![F,A,] D z | !///-!G,,,3 G,,3 | %7
 !///-!G,,,3 G,,3 |[M:4/4] !arpeggio![C,,G,,E,]3/2 z/ z2 [^F,,^F,] z [=F,,=F,] z | [E,,E,]8 | %10
 !arpeggio![C,,G,,E,]4- [C,,G,,E,] z [E,,C,]2 | [G,,D,]8 | !arpeggio![D,,A,,F,]4 [A,,E,]4 | %13
 !arpeggio![D,,A,,F,]4- [D,,A,,F,] z z2 | [A,,E,]4 [F,,F,]4 | [E,,E,]8 | %16
 [A,,A,]2 z2 [D,,D,]2 [E,,E,]2 | [A,,E,]8 | !arpeggio![C,,G,,E,]4- [C,,G,,E,] z [E,,C,]2 | %19
 [G,,D,]8 | [D,,E,]3 z [F,,F,]3 z | [E,,E,]3 z [^C,,^C,]3 z | !arpeggio![D,,A,,F,]8- | %23
 [D,,A,,F,] z (!>!FF/) z/ (!>!EE/) z/ (!>!DD/) z/ | [G,,,G,,]4 [G,,A,,]4 | %25
 [G,,,G,,]4- [G,,,G,,] z [G,,,G,,] z | [C,,C,E,G,C]4- [C,,C,E,G,C]2 z2 |] %27
V:4
 !>![A,,,A,,]3- [A,,,A,,] z2 | !>![C,,C,]3- [C,,C,] z2 | !>![=A,,,=A,,]3- [A,,,A,,] z2 | %3
 !>![C,,C,]3- [C,,C,] z2 | !>![A,,,A,,]3- [A,,,A,,] z2 | !>![F,,,F,,]3- [F,,,F,,] z2 | x6 | x6 | %8
[M:4/4] x8 | x8 | x8 | x8 | x8 | x8 | x8 | x8 | x8 | x8 | x8 | x8 | x8 | x8 | x8 | x8 | x8 | x8 | %26
 x8 |] %27
V:5
 x6 | x6 | x6 | x6 | x6 | x6 | x6 | x6 |[M:4/4] x8 | x8 | x8 | x8 | x8 | x8 | x8 | x8 | x8 | x8 | %18
 x8 | x8 | x8 | x8 | x8 | x2 f2 e2 d2 | x8 | x8 | x8 |] %27

